!!!COM: Vivaldi, Antonio Lucio
!!!CDT: 1678/03/04-1741/08/28
!!!OPR: 12 sonatas for two violins and basso continuo
!!!OTL: Sonata in G major, op. @{OPS}, no. @{ONM} (@{SCT})
!!!OPS: 1
!!!ONM: 1
!!!OMV: 5. Gavotta
!!!SCT: RV 73
!!!SCA: Antonio Vivaldi: Thematisch-systematisches Verzeichnis seiner Werke (Ryom-Verzeichnis)
!!!OMD: Allegro
!!!key: g
**kern	**fb	**kern	**kern
*part3	*	*part2	*part1
*staff3	*	*staff2	*staff1
*ICstr&ICklav	*	*ICstr	*ICstr
*Icello&Icemba	*	*Ivioln	*Ivioln
*	*	*I#2	*I#1
*I"Violoncello\nContinuo	*	*I"Violin 2	*I"Violin 1
*I'bc	*	*I'v2	*I'v1
*>[A,A,B,B]	*>[A,A,B,B]	*>[A,A,B,B]	*>[A,A,B,B]
*>norep[A,B]	*>norep[A,B]	*>norep[A,B]	*>norep[A,B]
*>A	*>A	*>A	*>A
*clefF4	*	*clefG2	*clefG2
*k[b-]	*	*k[b-]	*k[b-]
*g:	*	*g:	*g:
*M4/4	*	*M4/4	*M4/4
*met(c)	*	*met(c)	*met(c)
*MM120	*	*MM120	*MM120
=1	=1	=1	=1
4GG/	.	4b-y\	8dd\L
.	.	.	8g\
8BB-y/L	6	8dd\L	8gg\
8C/J	.	8ee-X\J	8aa\J
4D\	#	8a/	4ff#X\
.	.	4dd\	.
4E-X\	7	.	4gg\
.	6	8cc\	.
=2	=2	=2	=2
8D/L	#	4ff#X\	8aa\L
8C/	.	.	8dd\
8BB-y/	6	8dd\L	8gg\
8AA/J	.	8ff#X\J	8aa\J
2GG/	.	4gg\	8bb-y\L
.	.	.	8aa\J
.	.	[4dd\	4gg\
=3	=3	=3	=3
4G\	.	4dd\]	8bb-y\L
.	.	.	8gg\
4A\	6	2cc\	8ff\
.	5-r	.	8ee-X\J
4B-y\	9	.	8dd\L
.	.	.	8ff\
8D\L	6	[4b-y\	8bb-y\
8E-X\J	.	.	8ee-X\J
=4	=4	=4	=4
4F\	6 4	4b-y\]	4dd\
4FF/	5 3	4a/t	4cc\T
2BB-y/	.	2b-y\	2b-y\
!!LO:LB:g=original
=5:|!|:	=5:|!|:	=5:|!|:	=5:|!|:
*>B	*>B	*>B	*>B
2BBn/	6	4r	8dd\L
.	.	.	8g\
.	.	4dd\	8gg\
.	.	.	8ff\J
2C/	-	2g/	8ee-X\L
.	.	.	8dd\J
.	.	.	4cc\
=6	=6	=6	=6
2C#y/	6	4r	8een\L
.	.	.	8a\
.	.	4ee\	8aa\
.	.	.	8gg\J
2D\	#	2a/	8ff#X\L
.	.	.	8ee\J
.	.	.	4dd\
=7	=7	=7	=7
4BB-y/	6	4dd\	(8bb-y\L
.	.	.	8gg\)
4C/	6-r -	4ee-X\	(8aa-X\
.	.	.	8cc\J)
4D\	#	4a/	(8ff#X\L
.	.	.	8dd\)
8r	.	[4g/	(8gg\
8E-X\	6	.	8cc\J)
=8	=8	=8	=8
8D/L	6 4	4g/]	4b-y\
8C/	.	.	.
8D/	5 #	4f#X/t	4a/t
8DD/J	.	.	.
2GG/;	.	2g/;	2g/;
=:|!	=:|!	=:|!	=:|!
*-	*-	*-	*-
!!!SMS: RV 73 / Estienne Roger (No. 363), Amsterdam [facs.]
!!!ENC: Fran Bennion  rev. 05/12/21 E Correia
!!!END: 2004/09/24
!!!ONB: Converted from MuseData with musedata2hum on Sat May 11 12:01:53 2024
!!!YEM: (C) 2004, 2019 Center for Computer Assisted Research in the Humanities
!!!system-decoration: [(s1,s2,s3)]
!!!URL-info: https://wiki.ccarh.org/wiki/MuseData:_Antonio_Vivaldi#Op._1:_Suonate_da_camera_a_tr.C3.A8.2C_due_violini_e_violone_o_cembalo Information about Vivaldi Op. 1 on the CCARH wiki
!!!URL-pdf: https://pdf.musedata.org/vivaldi-op01-no01.pdf#page=5 MuseData edition
!!!URL-pdf: https://s9.imslp.org/files/imglnks/usimg/1/18/IMSLP280399-PMLP10351-Vivaldi_Sonatas_Op_1_-_Violino_Primo.pdf#page=4 Violino primo part, Amsterdam: Estienne Roger, n.d.(ca.1723). Plate 363.
!!!URL-pdf: https://s9.imslp.org/files/imglnks/usimg/d/d5/IMSLP280400-PMLP10351-Vivaldi_Sonatas_Op_1_-_Violino_Secondo.pdf#page=3 Violino secondo part, Amsterdam: Estienne Roger, n.d.(ca.1723). Plate 363.
!!!URL-pdf: https://s9.imslp.org/files/imglnks/usimg/8/89/IMSLP280401-PMLP10351-Vivaldi_Sonatas_Op_1_-_Organo_e_Violoncello.pdf#page=3 Organo e Violoncello parts, Amsterdam: Estienne Roger, n.d.(ca.1723). Plate 363.
!!!URL-youtube: https://www.youtube.com/watch?v=P5HHPe_W6Uo&t=356s L'Arte dell'Arco
!!!URL-youtube: https://www.youtube.com/watch?v=vFz1e6g68iQ&t=348s Seattle Baroque Soloists (2010)
!!!title: @{OTL}, mov. @{OMV}
!!!filter-vcross: vcross
!!!EEV: 2024/05/11
!!!source-file: https://bitbucket.org/musedata/vivaldi/src/master/roger/op1/no01/stage2/05/01
!!!source-file: https://bitbucket.org/musedata/vivaldi/src/master/roger/op1/no01/stage2/05/02
!!!source-file: https://bitbucket.org/musedata/vivaldi/src/master/roger/op1/no01/stage2/05/03
!!!source-file: https://bitbucket.org/musedata/vivaldi/src/master/roger/op1/no01/stage2/05/04
